Newaita-dark/apps/48/hexchat.svg

<svg height="48pt" viewBox="0 0 48 48" width="48pt" xmlns="http://www.w3.org/2000/svg" xmlns:xlink="http://www.w3.org/1999/xlink"><linearGradient id="a"><stop offset="0" stop-opacity=".313725"/><stop offset=".222222" stop-opacity=".27451"/><stop offset="1" stop-opacity="0"/></linearGradient><radialGradient id="b" cx="450.908936" cy="189.579361" gradientTransform="matrix(.00000026 -.117199 -.210958 -.00000015 50.164003 94.648786)" gradientUnits="userSpaceOnUse" r="21.166656" xlink:href="#a"/><radialGradient id="c" cx="450.908936" cy="189.579361" gradientTransform="matrix(-.00000026 .117199 .210958 .00000015 -29.32607 -12.035431)" gradientUnits="userSpaceOnUse" r="21.166656" xlink:href="#a"/><radialGradient id="d" cx="450.908936" cy="189.579361" gradientTransform="matrix(-.00000026 -.117199 .210958 -.00000015 -29.32607 94.648786)" gradientUnits="userSpaceOnUse" r="21.166656" xlink:href="#a"/><radialGradient id="e" cx="450.908936" cy="189.579361" gradientTransform="matrix(.00000026 .117199 -.210958 .00000015 50.164 -12.035432)" gradientUnits="userSpaceOnUse" r="21.166656" xlink:href="#a"/><linearGradient id="f"><stop offset="0" stop-opacity=".27451"/><stop offset="1" stop-opacity="0"/></linearGradient><linearGradient id="g" gradientTransform="matrix(.0200401 0 0 .093759 8.527188 19.413967)" gradientUnits="userSpaceOnUse" x1="255.323059" x2="255.323044" xlink:href="#f" y1="233.5" y2="254.666656"/><radialGradient id="h" cx="450.908936" cy="189.579361" gradientTransform="matrix(.00000026 -.117199 -.210958 -.00000015 77.203696 94.896856)" gradientUnits="userSpaceOnUse" r="21.166656" xlink:href="#a"/><radialGradient id="i" cx="450.908936" cy="189.579361" gradientTransform="matrix(-.00000026 .117199 .210958 .00000015 -2.286376 -11.787361)" gradientUnits="userSpaceOnUse" r="21.166656" xlink:href="#a"/><radialGradient id="j" cx="450.908936" cy="189.579361" gradientTransform="matrix(-.00000026 -.117199 .210958 -.00000015 -2.286376 94.896856)" gradientUnits="userSpaceOnUse" r="21.166656" xlink:href="#a"/><radialGradient id="k" cx="450.908936" cy="189.579361" gradientTransform="matrix(.00000026 .117199 -.210958 .00000015 77.203693 -11.787361)" gradientUnits="userSpaceOnUse" r="21.166656" xlink:href="#a"/><linearGradient id="l" gradientTransform="matrix(.0200401 0 0 .093759 35.566881 19.662038)" gradientUnits="userSpaceOnUse" x1="255.323059" x2="255.323044" xlink:href="#f" y1="233.5" y2="254.666656"/><linearGradient id="m" gradientUnits="userSpaceOnUse" x1="23.814786" x2="23.814786" y1="42.0509015" y2="23.19752899998"><stop offset="0" stop-color="#ffd54f"/><stop offset="1" stop-color="#ffca28"/></linearGradient><linearGradient id="n" gradientUnits="userSpaceOnUse" x1="23.814816" x2="23.814816" y1="23.19756829293" y2="4.34417266504"><stop offset="0" stop-color="#ff7043"/><stop offset="1" stop-color="#ff8a65"/></linearGradient><path d="m10.667969 41.308594h3.96875v-1.988282h-3.96875zm0 0" fill="url(#b)"/><path d="m10.171875 41.308594h-3.96875v1.984375h3.96875zm0 0" fill="url(#c)"/><path d="m10.171875 41.308594h-3.96875v-1.988282h3.96875zm0 0" fill="url(#d)"/><path d="m10.667969 41.308594h3.96875v1.984375h-3.96875zm0 0" fill="url(#e)"/><path d="m10.171875 40.808594h.496094v2.484375h-.496094zm0 0" fill="url(#g)"/><path d="m37.707031 41.554688h3.96875v-1.984376h-3.96875zm0 0" fill="url(#h)"/><path d="m37.210938 41.554688h-3.96875v1.984374h3.96875zm0 0" fill="url(#i)"/><path d="m37.210938 41.554688h-3.96875v-1.984376h3.96875zm0 0" fill="url(#j)"/><path d="m37.707031 41.554688h3.96875v1.984374h-3.96875zm0 0" fill="url(#k)"/><path d="m37.210938 41.058594h.496093v2.480468h-.496093zm0 0" fill="url(#l)"/><path d="m10.484375 5.074219c-.507813 0-1.015625.195312-1.402344.582031l-2.808593 2.808594c-.777344.777344-.777344 2.027344 0 2.804687l11.929687 11.929688-11.929687 11.925781c-.777344.777344-.777344 2.03125 0 2.808594l2.808593 2.804687c.777344.777344 2.027344.777344 2.804688 0l11.929687-11.925781 11.925782 11.925781c.777343.777344 2.03125.777344 2.808593 0l2.804688-2.804687c.777343-.777344.777343-2.03125 0-2.808594l-11.925781-11.925781 11.925781-11.929688c.777343-.777343.777343-2.027343 0-2.804687l-2.804688-2.808594c-.777343-.777344-2.03125-.777344-2.808593 0l-11.925782 11.929688-11.929687-11.929688c-.390625-.386719-.894531-.582031-1.402344-.582031zm0 0" fill="url(#m)"/><path d="m10.484375 5.074219c-.507813 0-1.015625.195312-1.402344.582031l-2.808593 2.804688c-.777344.78125-.777344 2.03125 0 2.808593l11.929687 11.929688c4.621094-4.46875 6.109375 4.464843 11.226563 0l11.925781-11.929688c.777343-.777343.777343-2.027343 0-2.808593l-2.804688-2.804688c-.777343-.777344-2.03125-.777344-2.808593 0l-11.925782 11.929688-11.929687-11.929688c-.390625-.386719-.894531-.582031-1.402344-.582031zm0 0" fill="url(#n)"/><path d="m10.484375 5.074219c-.507813 0-1.015625.195312-1.402344.582031l-2.808593 2.804688c-.472657.472656-.65625 1.121093-.554688 1.730468.066406-.394531.25-.773437.554688-1.078125l2.808593-2.804687c.386719-.390625.894531-.582032 1.402344-.582032s1.011719.191407 1.402344.582032l11.929687 11.925781 11.925782-11.925781c.777343-.777344 2.03125-.777344 2.808593 0l2.804688 2.804687c.304687.304688.492187.683594.554687 1.078125.101563-.609375-.082031-1.257812-.554687-1.730468l-2.804688-2.804688c-.777343-.777344-2.03125-.777344-2.808593 0l-11.925782 11.929688-11.929687-11.929688c-.390625-.386719-.894531-.582031-1.402344-.582031zm19.269531 18.449219-.324218.324218 11.925781 11.929688c.304687.304687.492187.683594.554687 1.078125.101563-.609375-.082031-1.257813-.554687-1.730469zm-11.878906 0-11.601562 11.601562c-.472657.472656-.65625 1.121094-.554688 1.730469.066406-.394531.25-.773438.554688-1.078125l11.929687-11.929688zm0 0" fill="#fff" fill-opacity=".392157"/><path d="m5.71875 9.539062c-.101562.609376.082031 1.257813.554688 1.730469l11.601562 11.601563.328125-.324219-11.929687-11.929687c-.304688-.304688-.488282-.683594-.554688-1.078126zm36.191406 0c-.0625.394532-.25.773438-.554687 1.078126l-11.925781 11.929687.324218.324219 11.601563-11.601563c.472656-.472656.65625-1.121093.554687-1.730469zm-18.09375 18.621094-11.929687 11.925782c-.777344.777343-2.027344.777343-2.804688 0l-2.808593-2.804688c-.304688-.304688-.488282-.683594-.554688-1.078125-.101562.609375.082031 1.257813.554688 1.730469l2.808593 2.804687c.777344.777344 2.027344.777344 2.804688 0l11.929687-11.925781 11.925782 11.925781c.777343.777344 2.03125.777344 2.808593 0l2.804688-2.804687c.472656-.472656.65625-1.121094.554687-1.730469-.0625.394531-.25.773437-.554687 1.078125l-2.804688 2.804688c-.777343.777343-2.03125.777343-2.808593 0zm0 0" fill-opacity=".235294"/><path d="m10.484375 4.933594c-.542969 0-1.089844.207031-1.503906.625l-2.804688 2.804687c-.832031.832031-.832031 2.175781 0 3.003907l11.828125 11.832031-11.828125 11.828125c-.832031.828125-.832031 2.171875 0 3.003906l2.804688 2.808594c.832031.828125 2.175781.828125 3.003906 0l11.832031-11.832032 11.828125 11.832032c.828125.828125 2.171875.828125 3.003907 0l2.808593-2.808594c.828125-.832031.828125-2.175781 0-3.003906l-11.832031-11.828125 11.832031-11.832031c.828125-.828126.828125-2.171876 0-3.003907l-2.808593-2.804687c-.832032-.832032-2.175782-.832032-3.003907 0l-11.828125 11.828125-11.832031-11.828125c-.414063-.417969-.957031-.625-1.5-.625zm26.660156.277344c.472657 0 .945313.183593 1.304688.542968l2.808593 2.808594c.722657.722656.722657 1.882812 0 2.609375l-12.027343 12.027344 12.027343 12.027343c.722657.722657.722657 1.882813 0 2.605469l-2.808593 2.808594c-.722657.722656-1.882813.722656-2.605469 0l-12.027344-12.027344-12.027344 12.027344c-.726562.722656-1.886718.722656-2.609374 0l-2.808594-2.808594c-.722656-.722656-.722656-1.882812 0-2.605469l12.03125-12.027343-12.03125-12.027344c-.722656-.726563-.722656-1.886719 0-2.609375l2.808594-2.808594c.363281-.359375.832031-.539062 1.304687-.539062.46875 0 .941406.179687 1.304687.539062l12.027344 12.03125 12.027344-12.03125c.359375-.359375.832031-.542968 1.300781-.542968zm0 0" fill="#212121"/></svg>

<?xml version="1.0" encoding="UTF-8"?>
<svg xmlns="http://www.w3.org/2000/svg" xmlns:xlink="http://www.w3.org/1999/xlink" width="48pt" height="48pt" viewBox="0 0 48 48" version="1.1">
<defs>
<radialGradient id="radial0" gradientUnits="userSpaceOnUse" cx="450.908936" cy="189.579361" fx="450.908936" fy="189.579361" r="21.166656" gradientTransform="matrix(0.000000261256,-0.117199,-0.210958,-0.000000152308,50.164003,94.648786)">
<stop offset="0" style="stop-color:rgb(0%,0%,0%);stop-opacity:0.313725;"/>
<stop offset="0.222222" style="stop-color:rgb(0%,0%,0%);stop-opacity:0.27451;"/>
<stop offset="1" style="stop-color:rgb(0%,0%,0%);stop-opacity:0;"/>
</radialGradient>
<radialGradient id="radial1" gradientUnits="userSpaceOnUse" cx="450.908936" cy="189.579361" fx="450.908936" fy="189.579361" r="21.166656" gradientTransform="matrix(-0.000000261256,0.117199,0.210958,0.000000152308,-29.32607,-12.035431)">
<stop offset="0" style="stop-color:rgb(0%,0%,0%);stop-opacity:0.313725;"/>
<stop offset="0.222222" style="stop-color:rgb(0%,0%,0%);stop-opacity:0.27451;"/>
<stop offset="1" style="stop-color:rgb(0%,0%,0%);stop-opacity:0;"/>
</radialGradient>
<radialGradient id="radial2" gradientUnits="userSpaceOnUse" cx="450.908936" cy="189.579361" fx="450.908936" fy="189.579361" r="21.166656" gradientTransform="matrix(-0.000000261256,-0.117199,0.210958,-0.000000152308,-29.32607,94.648786)">
<stop offset="0" style="stop-color:rgb(0%,0%,0%);stop-opacity:0.313725;"/>
<stop offset="0.222222" style="stop-color:rgb(0%,0%,0%);stop-opacity:0.27451;"/>
<stop offset="1" style="stop-color:rgb(0%,0%,0%);stop-opacity:0;"/>
</radialGradient>
<radialGradient id="radial3" gradientUnits="userSpaceOnUse" cx="450.908936" cy="189.579361" fx="450.908936" fy="189.579361" r="21.166656" gradientTransform="matrix(0.000000261256,0.117199,-0.210958,0.000000152308,50.164,-12.035432)">
<stop offset="0" style="stop-color:rgb(0%,0%,0%);stop-opacity:0.313725;"/>
<stop offset="0.222222" style="stop-color:rgb(0%,0%,0%);stop-opacity:0.27451;"/>
<stop offset="1" style="stop-color:rgb(0%,0%,0%);stop-opacity:0;"/>
</radialGradient>
<linearGradient id="linear0" gradientUnits="userSpaceOnUse" x1="255.323059" y1="233.5" x2="255.323044" y2="254.666656" gradientTransform="matrix(0.0200401,0,0,0.093759,8.527188,19.413967)">
<stop offset="0" style="stop-color:rgb(0%,0%,0%);stop-opacity:0.27451;"/>
<stop offset="1" style="stop-color:rgb(0%,0%,0%);stop-opacity:0;"/>
</linearGradient>
<radialGradient id="radial4" gradientUnits="userSpaceOnUse" cx="450.908936" cy="189.579361" fx="450.908936" fy="189.579361" r="21.166656" gradientTransform="matrix(0.000000261256,-0.117199,-0.210958,-0.000000152308,77.203696,94.896856)">
<stop offset="0" style="stop-color:rgb(0%,0%,0%);stop-opacity:0.313725;"/>
<stop offset="0.222222" style="stop-color:rgb(0%,0%,0%);stop-opacity:0.27451;"/>
<stop offset="1" style="stop-color:rgb(0%,0%,0%);stop-opacity:0;"/>
</radialGradient>
<radialGradient id="radial5" gradientUnits="userSpaceOnUse" cx="450.908936" cy="189.579361" fx="450.908936" fy="189.579361" r="21.166656" gradientTransform="matrix(-0.000000261256,0.117199,0.210958,0.000000152308,-2.286376,-11.787361)">
<stop offset="0" style="stop-color:rgb(0%,0%,0%);stop-opacity:0.313725;"/>
<stop offset="0.222222" style="stop-color:rgb(0%,0%,0%);stop-opacity:0.27451;"/>
<stop offset="1" style="stop-color:rgb(0%,0%,0%);stop-opacity:0;"/>
</radialGradient>
<radialGradient id="radial6" gradientUnits="userSpaceOnUse" cx="450.908936" cy="189.579361" fx="450.908936" fy="189.579361" r="21.166656" gradientTransform="matrix(-0.000000261256,-0.117199,0.210958,-0.000000152308,-2.286376,94.896856)">
<stop offset="0" style="stop-color:rgb(0%,0%,0%);stop-opacity:0.313725;"/>
<stop offset="0.222222" style="stop-color:rgb(0%,0%,0%);stop-opacity:0.27451;"/>
<stop offset="1" style="stop-color:rgb(0%,0%,0%);stop-opacity:0;"/>
</radialGradient>
<radialGradient id="radial7" gradientUnits="userSpaceOnUse" cx="450.908936" cy="189.579361" fx="450.908936" fy="189.579361" r="21.166656" gradientTransform="matrix(0.000000261256,0.117199,-0.210958,0.000000152308,77.203693,-11.787361)">
<stop offset="0" style="stop-color:rgb(0%,0%,0%);stop-opacity:0.313725;"/>
<stop offset="0.222222" style="stop-color:rgb(0%,0%,0%);stop-opacity:0.27451;"/>
<stop offset="1" style="stop-color:rgb(0%,0%,0%);stop-opacity:0;"/>
</radialGradient>
<linearGradient id="linear1" gradientUnits="userSpaceOnUse" x1="255.323059" y1="233.5" x2="255.323044" y2="254.666656" gradientTransform="matrix(0.0200401,0,0,0.093759,35.566881,19.662038)">
<stop offset="0" style="stop-color:rgb(0%,0%,0%);stop-opacity:0.27451;"/>
<stop offset="1" style="stop-color:rgb(0%,0%,0%);stop-opacity:0;"/>
</linearGradient>
<linearGradient id="linear2" gradientUnits="userSpaceOnUse" x1="254" y1="233.5" x2="254" y2="32.416664" gradientTransform="matrix(0.093759,0,0,0.093759,0,20.158175)">
<stop offset="0" style="stop-color:rgb(100%,83.529412%,30.980392%);stop-opacity:1;"/>
<stop offset="1" style="stop-color:rgb(100%,79.215686%,15.686275%);stop-opacity:1;"/>
</linearGradient>
<linearGradient id="linear3" gradientUnits="userSpaceOnUse" x1="960" y1="935.118103" x2="960" y2="175.118118" gradientTransform="matrix(0.0248071,0,0,0.0248071,0,0)">
<stop offset="0" style="stop-color:rgb(100%,43.921569%,26.27451%);stop-opacity:1;"/>
<stop offset="1" style="stop-color:rgb(100%,54.117647%,39.607843%);stop-opacity:1;"/>
</linearGradient>
</defs>
<g id="surface1">
<path style=" stroke:none;fill-rule:nonzero;fill:url(#radial0);" d="M 10.667969 41.308594 L 14.636719 41.308594 L 14.636719 39.320312 L 10.667969 39.320312 Z M 10.667969 41.308594 "/>
<path style=" stroke:none;fill-rule:nonzero;fill:url(#radial1);" d="M 10.171875 41.308594 L 6.203125 41.308594 L 6.203125 43.292969 L 10.171875 43.292969 Z M 10.171875 41.308594 "/>
<path style=" stroke:none;fill-rule:nonzero;fill:url(#radial2);" d="M 10.171875 41.308594 L 6.203125 41.308594 L 6.203125 39.320312 L 10.171875 39.320312 Z M 10.171875 41.308594 "/>
<path style=" stroke:none;fill-rule:nonzero;fill:url(#radial3);" d="M 10.667969 41.308594 L 14.636719 41.308594 L 14.636719 43.292969 L 10.667969 43.292969 Z M 10.667969 41.308594 "/>
<path style=" stroke:none;fill-rule:nonzero;fill:url(#linear0);" d="M 10.171875 40.808594 L 10.667969 40.808594 L 10.667969 43.292969 L 10.171875 43.292969 Z M 10.171875 40.808594 "/>
<path style=" stroke:none;fill-rule:nonzero;fill:url(#radial4);" d="M 37.707031 41.554688 L 41.675781 41.554688 L 41.675781 39.570312 L 37.707031 39.570312 Z M 37.707031 41.554688 "/>
<path style=" stroke:none;fill-rule:nonzero;fill:url(#radial5);" d="M 37.210938 41.554688 L 33.242188 41.554688 L 33.242188 43.539062 L 37.210938 43.539062 Z M 37.210938 41.554688 "/>
<path style=" stroke:none;fill-rule:nonzero;fill:url(#radial6);" d="M 37.210938 41.554688 L 33.242188 41.554688 L 33.242188 39.570312 L 37.210938 39.570312 Z M 37.210938 41.554688 "/>
<path style=" stroke:none;fill-rule:nonzero;fill:url(#radial7);" d="M 37.707031 41.554688 L 41.675781 41.554688 L 41.675781 43.539062 L 37.707031 43.539062 Z M 37.707031 41.554688 "/>
<path style=" stroke:none;fill-rule:nonzero;fill:url(#linear1);" d="M 37.210938 41.058594 L 37.707031 41.058594 L 37.707031 43.539062 L 37.210938 43.539062 Z M 37.210938 41.058594 "/>
<path style=" stroke:none;fill-rule:nonzero;fill:url(#linear2);" d="M 10.484375 5.074219 C 9.976562 5.074219 9.46875 5.269531 9.082031 5.65625 L 6.273438 8.464844 C 5.496094 9.242188 5.496094 10.492188 6.273438 11.269531 L 18.203125 23.199219 L 6.273438 35.125 C 5.496094 35.902344 5.496094 37.15625 6.273438 37.933594 L 9.082031 40.738281 C 9.859375 41.515625 11.109375 41.515625 11.886719 40.738281 L 23.816406 28.8125 L 35.742188 40.738281 C 36.519531 41.515625 37.773438 41.515625 38.550781 40.738281 L 41.355469 37.933594 C 42.132812 37.15625 42.132812 35.902344 41.355469 35.125 L 29.429688 23.199219 L 41.355469 11.269531 C 42.132812 10.492188 42.132812 9.242188 41.355469 8.464844 L 38.550781 5.65625 C 37.773438 4.878906 36.519531 4.878906 35.742188 5.65625 L 23.816406 17.585938 L 11.886719 5.65625 C 11.496094 5.269531 10.992188 5.074219 10.484375 5.074219 Z M 10.484375 5.074219 "/>
<path style=" stroke:none;fill-rule:nonzero;fill:url(#linear3);" d="M 10.484375 5.074219 C 9.976562 5.074219 9.46875 5.269531 9.082031 5.65625 L 6.273438 8.460938 C 5.496094 9.242188 5.496094 10.492188 6.273438 11.269531 L 18.203125 23.199219 C 22.824219 18.730469 24.3125 27.664062 29.429688 23.199219 L 41.355469 11.269531 C 42.132812 10.492188 42.132812 9.242188 41.355469 8.460938 L 38.550781 5.65625 C 37.773438 4.878906 36.519531 4.878906 35.742188 5.65625 L 23.816406 17.585938 L 11.886719 5.65625 C 11.496094 5.269531 10.992188 5.074219 10.484375 5.074219 Z M 10.484375 5.074219 "/>
<path style=" stroke:none;fill-rule:nonzero;fill:rgb(100%,100%,100%);fill-opacity:0.392157;" d="M 10.484375 5.074219 C 9.976562 5.074219 9.46875 5.269531 9.082031 5.65625 L 6.273438 8.460938 C 5.800781 8.933594 5.617188 9.582031 5.71875 10.191406 C 5.785156 9.796875 5.96875 9.417969 6.273438 9.113281 L 9.082031 6.308594 C 9.46875 5.917969 9.976562 5.726562 10.484375 5.726562 C 10.992188 5.726562 11.496094 5.917969 11.886719 6.308594 L 23.816406 18.234375 L 35.742188 6.308594 C 36.519531 5.53125 37.773438 5.53125 38.550781 6.308594 L 41.355469 9.113281 C 41.660156 9.417969 41.847656 9.796875 41.910156 10.191406 C 42.011719 9.582031 41.828125 8.933594 41.355469 8.460938 L 38.550781 5.65625 C 37.773438 4.878906 36.519531 4.878906 35.742188 5.65625 L 23.816406 17.585938 L 11.886719 5.65625 C 11.496094 5.269531 10.992188 5.074219 10.484375 5.074219 Z M 29.753906 23.523438 L 29.429688 23.847656 L 41.355469 35.777344 C 41.660156 36.082031 41.847656 36.460938 41.910156 36.855469 C 42.011719 36.246094 41.828125 35.597656 41.355469 35.125 Z M 17.875 23.523438 L 6.273438 35.125 C 5.800781 35.597656 5.617188 36.246094 5.71875 36.855469 C 5.785156 36.460938 5.96875 36.082031 6.273438 35.777344 L 18.203125 23.847656 Z M 17.875 23.523438 "/>
<path style=" stroke:none;fill-rule:nonzero;fill:rgb(0%,0%,0%);fill-opacity:0.235294;" d="M 5.71875 9.539062 C 5.617188 10.148438 5.800781 10.796875 6.273438 11.269531 L 17.875 22.871094 L 18.203125 22.546875 L 6.273438 10.617188 C 5.96875 10.3125 5.785156 9.933594 5.71875 9.539062 Z M 41.910156 9.539062 C 41.847656 9.933594 41.660156 10.3125 41.355469 10.617188 L 29.429688 22.546875 L 29.753906 22.871094 L 41.355469 11.269531 C 41.828125 10.796875 42.011719 10.148438 41.910156 9.539062 Z M 23.816406 28.160156 L 11.886719 40.085938 C 11.109375 40.863281 9.859375 40.863281 9.082031 40.085938 L 6.273438 37.28125 C 5.96875 36.976562 5.785156 36.597656 5.71875 36.203125 C 5.617188 36.8125 5.800781 37.460938 6.273438 37.933594 L 9.082031 40.738281 C 9.859375 41.515625 11.109375 41.515625 11.886719 40.738281 L 23.816406 28.8125 L 35.742188 40.738281 C 36.519531 41.515625 37.773438 41.515625 38.550781 40.738281 L 41.355469 37.933594 C 41.828125 37.460938 42.011719 36.8125 41.910156 36.203125 C 41.847656 36.597656 41.660156 36.976562 41.355469 37.28125 L 38.550781 40.085938 C 37.773438 40.863281 36.519531 40.863281 35.742188 40.085938 Z M 23.816406 28.160156 "/>
<path style=" stroke:none;fill-rule:nonzero;fill:rgb(12.941177%,12.941177%,12.941177%);fill-opacity:1;" d="M 10.484375 4.933594 C 9.941406 4.933594 9.394531 5.140625 8.980469 5.558594 L 6.175781 8.363281 C 5.34375 9.195312 5.34375 10.539062 6.175781 11.367188 L 18.003906 23.199219 L 6.175781 35.027344 C 5.34375 35.855469 5.34375 37.199219 6.175781 38.03125 L 8.980469 40.839844 C 9.8125 41.667969 11.15625 41.667969 11.984375 40.839844 L 23.816406 29.007812 L 35.644531 40.839844 C 36.472656 41.667969 37.816406 41.667969 38.648438 40.839844 L 41.457031 38.03125 C 42.285156 37.199219 42.285156 35.855469 41.457031 35.027344 L 29.625 23.199219 L 41.457031 11.367188 C 42.285156 10.539062 42.285156 9.195312 41.457031 8.363281 L 38.648438 5.558594 C 37.816406 4.726562 36.472656 4.726562 35.644531 5.558594 L 23.816406 17.386719 L 11.984375 5.558594 C 11.570312 5.140625 11.027344 4.933594 10.484375 4.933594 Z M 37.144531 5.210938 C 37.617188 5.210938 38.089844 5.394531 38.449219 5.753906 L 41.257812 8.5625 C 41.980469 9.285156 41.980469 10.445312 41.257812 11.171875 L 29.230469 23.199219 L 41.257812 35.226562 C 41.980469 35.949219 41.980469 37.109375 41.257812 37.832031 L 38.449219 40.640625 C 37.726562 41.363281 36.566406 41.363281 35.84375 40.640625 L 23.816406 28.613281 L 11.789062 40.640625 C 11.0625 41.363281 9.902344 41.363281 9.179688 40.640625 L 6.371094 37.832031 C 5.648438 37.109375 5.648438 35.949219 6.371094 35.226562 L 18.402344 23.199219 L 6.371094 11.171875 C 5.648438 10.445312 5.648438 9.285156 6.371094 8.5625 L 9.179688 5.753906 C 9.542969 5.394531 10.011719 5.214844 10.484375 5.214844 C 10.953125 5.214844 11.425781 5.394531 11.789062 5.753906 L 23.816406 17.785156 L 35.84375 5.753906 C 36.203125 5.394531 36.675781 5.210938 37.144531 5.210938 Z M 37.144531 5.210938 "/>
</g>
</svg>
